Simply-Blue-Circles/scalable/apps/glade.svg

<?xml version="1.0" encoding="UTF-8" standalone="no"?><svg xmlns:dc="http://purl.org/dc/elements/1.1/" xmlns:cc="http://creativecommons.org/ns#" xmlns:rdf="http://www.w3.org/1999/02/22-rdf-syntax-ns#" xmlns="http://www.w3.org/2000/svg" width="48" height="48" viewBox="0 0 12.7 12.7"><metadata><rdf:RDF><cc:Work><dc:format>image/svg+xml</dc:format><dc:type rdf:resource="http://purl.org/dc/dcmitype/StillImage"/><dc:title/></cc:Work></rdf:RDF></metadata><path d="M6.34.07a6.29 6.29 0 0 0-6.29 6.3 6.29 6.29 0 0 0 6.3 6.28 6.29 6.29 0 0 0 6.28-6.29A6.29 6.29 0 0 0 6.34.07zm-.01.94a5.4 5.4 0 0 1 5.4 5.4 5.4 5.4 0 0 1-5.4 5.41A5.4 5.4 0 0 1 1.6 9.03h9.11V3.71l-.51.3.15.26-.09.06-.15-.27-.27.16.16.26-.1.05-.15-.26-.26.15.3.53-.08.06-.31-.54-.27.16.16.26-.09.06-.16-.27-.26.16.15.26-.08.05-.16-.26-7.1 4.14a5.4 5.4 0 0 1-.67-2.61A5.4 5.4 0 0 1 6.32 1zM9.4 4.47l.09-.05-.1.05h.01zm.35-.2l.1-.05-.1.05zm.36-.2L10.2 4l-.1.05zm-1.69.97l.32.53-.1.06-.3-.54.08-.05zm-.35.21l.16.27-.1.05-.15-.27.09-.05zm-.35.2l.15.27-.09.05-.15-.26.09-.05zm-.36.21l.31.54-.09.05-.3-.53.08-.06zm-.35.21l.15.27-.09.05-.15-.27.09-.05zm-.36.2l.16.27-.1.06-.15-.27.1-.05zm2.76.1v1.9H6.15l3.26-1.9zm-3.11.11l.3.54-.08.05-.31-.53.09-.06zm-.36.21l.16.27-.1.05-.15-.27.1-.05zm-.35.2l.15.27-.08.06-.16-.27.09-.05zm-.36.22l.31.53-.08.05-.31-.53.08-.05zm-.35.2l.15.27-.08.05-.16-.27.09-.05zm-.35.21l.15.27-.09.05-.15-.27.09-.05zm-.36.2l.31.54-.09.05-.3-.53.08-.05zm-.35.21l.15.27-.09.05-.15-.26.09-.06zm-.36.21l.16.27-.1.05-.15-.27.1-.05zm-.35.2l.3.54-.08.05-.31-.53.09-.05zm-.36.22l.16.26-.1.05-.15-.26.1-.05zm-.35.2l.15.27-.09.05-.15-.27.09-.05z" fill="#2c89a0"/></svg>

<?xml version="1.0" encoding="UTF-8" standalone="no"?>
<svg
   xmlns:dc="http://purl.org/dc/elements/1.1/"
   xmlns:cc="http://creativecommons.org/ns#"
   xmlns:rdf="http://www.w3.org/1999/02/22-rdf-syntax-ns#"
   xmlns:svg="http://www.w3.org/2000/svg"
   xmlns="http://www.w3.org/2000/svg"
   xmlns:sodipodi="http://sodipodi.sourceforge.net/DTD/sodipodi-0.dtd"
   xmlns:inkscape="http://www.inkscape.org/namespaces/inkscape"
   width="48"
   height="48"
   viewBox="0 0 12.7 12.7"
   version="1.1"
   id="svg6"
   sodipodi:docname="glade.svg"
   inkscape:version="0.92.4 (5da689c313, 2019-01-14)">
  <defs
     id="defs10" />
  <sodipodi:namedview
     pagecolor="#ffffff"
     bordercolor="#666666"
     borderopacity="1"
     objecttolerance="10"
     gridtolerance="10"
     guidetolerance="10"
     inkscape:pageopacity="0"
     inkscape:pageshadow="2"
     inkscape:window-width="1087"
     inkscape:window-height="480"
     id="namedview8"
     showgrid="false"
     inkscape:zoom="4.9166667"
     inkscape:cx="2.1355932"
     inkscape:cy="24"
     inkscape:window-x="0"
     inkscape:window-y="25"
     inkscape:window-maximized="0"
     inkscape:current-layer="svg6" />
  <metadata
     id="metadata2">
    <rdf:RDF>
      <cc:Work>
        <dc:format>image/svg+xml</dc:format>
        <dc:type
           rdf:resource="http://purl.org/dc/dcmitype/StillImage" />
        <dc:title></dc:title>
      </cc:Work>
    </rdf:RDF>
  </metadata>
  <path
     d="M 6.34,0.07 A 6.29,6.29 0 0 0 0.05,6.37 6.29,6.29 0 0 0 6.35,12.65 6.29,6.29 0 0 0 12.63,6.36 6.29,6.29 0 0 0 6.34,0.07 Z M 6.33,1.01 a 5.4,5.4 0 0 1 5.4,5.4 5.4,5.4 0 0 1 -5.4,5.41 A 5.4,5.4 0 0 1 1.6,9.03 h 9.11 V 3.71 L 10.2,4.01 10.35,4.27 10.26,4.33 10.11,4.06 9.84,4.22 10,4.48 9.9,4.53 9.75,4.27 9.49,4.42 9.79,4.95 9.71,5.01 9.4,4.47 9.13,4.63 9.29,4.89 9.2,4.95 9.04,4.68 8.78,4.84 8.93,5.1 8.85,5.15 8.69,4.89 1.59,9.03 A 5.4,5.4 0 0 1 0.92,6.42 5.4,5.4 0 0 1 6.32,1 Z M 9.4,4.47 9.49,4.42 9.39,4.47 Z M 9.75,4.27 9.85,4.22 Z M 10.11,4.07 10.2,4 10.1,4.05 Z M 8.42,5.04 8.74,5.57 8.64,5.63 8.34,5.09 Z M 8.07,5.25 8.23,5.52 8.13,5.57 7.98,5.3 Z M 7.72,5.45 7.87,5.72 7.78,5.77 7.63,5.51 7.72,5.46 Z M 7.36,5.66 7.67,6.2 7.58,6.25 7.28,5.72 Z M 7.01,5.87 7.16,6.14 7.07,6.19 6.92,5.92 Z M 6.65,6.07 6.81,6.34 6.71,6.4 6.56,6.13 6.66,6.08 Z m 2.76,0.1 v 1.9 H 6.15 Z M 6.3,6.28 6.6,6.82 6.52,6.87 6.21,6.34 Z M 5.94,6.49 6.1,6.76 6,6.81 5.85,6.54 5.95,6.49 Z M 5.59,6.69 5.74,6.96 5.66,7.02 5.5,6.75 5.59,6.7 Z M 5.23,6.91 5.54,7.44 5.46,7.49 5.15,6.96 Z M 4.88,7.11 5.03,7.38 4.95,7.43 4.79,7.16 Z M 4.53,7.32 4.68,7.59 4.59,7.64 4.44,7.37 Z M 4.17,7.52 4.48,8.06 4.39,8.11 4.09,7.58 4.17,7.53 Z M 3.82,7.73 3.97,8 3.88,8.05 3.73,7.79 Z M 3.46,7.94 3.62,8.21 3.52,8.26 3.37,7.99 3.47,7.94 Z M 3.11,8.14 3.41,8.68 3.33,8.73 3.02,8.2 3.11,8.15 Z M 2.75,8.36 2.91,8.62 2.81,8.67 2.66,8.41 2.76,8.36 Z M 2.4,8.56 2.55,8.83 2.46,8.88 2.31,8.61 Z"
     id="path4"
     inkscape:connector-curvature="0"
     style="fill:#2c89a0" />
</svg>
